style-guide/assets/xd-icons-link-tiny.svg

<?xml version="1.0" encoding="UTF-8"?>
<svg width="12px" height="12px" viewBox="0 0 12 12" version="1.1" xmlns="http://www.w3.org/2000/svg" xmlns:xlink="http://www.w3.org/1999/xlink">
    <!-- Generator: Sketch 51.3 (57544) - http://www.bohemiancoding.com/sketch -->
    <title>link</title>
    <desc>Created with Sketch.</desc>
    <defs></defs>
    <g id="link" stroke="none" stroke-width="1" fill="none" fill-rule="evenodd">
        <path d="M8.171,0 C10.282,0 12,1.718 12,3.829 C12,4.378 11.884,4.911 11.656,5.413 C11.428,5.916 10.836,6.14 10.333,5.911 C9.83,5.683 9.607,5.09 9.835,4.587 C9.944,4.347 10,4.091 10,3.829 C10,2.82 9.179,2 8.171,2 C7.683,2 7.224,2.19 6.878,2.536 L5.535,3.878 C5.19,4.224 5,4.683 5,5.171 C5,5.66 5.19,6.12 5.535,6.465 C5.926,6.855 5.926,7.488 5.536,7.879 C5.341,8.075 5.085,8.173 4.829,8.173 C4.573,8.173 4.317,8.075 4.122,7.88 C3.398,7.157 3,6.194 3,5.171 C3,4.149 3.398,3.188 4.121,2.464 L5.464,1.122 C6.187,0.398 7.149,0 8.171,0 Z M6.463,4.1211 C6.854,3.7291 7.487,3.7301 7.877,4.1201 C8.601,4.8431 9,5.8061 9,6.8291 C9,7.8501 8.601,8.8121 7.878,9.5361 L6.535,10.8781 C5.812,11.6011 4.851,12.0001 3.828,12.0001 C1.717,12.0001 0,10.2821 0,8.1711 C0,7.6221 0.115,7.0891 0.343,6.5871 C0.571,6.0841 1.164,5.8601 1.667,6.0891 C2.17,6.3171 2.392,6.9101 2.164,7.4131 C2.055,7.6531 2,7.9091 2,8.1711 C2,9.1801 2.82,10.0001 3.828,10.0001 C4.317,10.0001 4.776,9.8091 5.121,9.4641 L6.464,8.1221 C6.809,7.7761 7,7.3171 7,6.8291 C7,6.3401 6.809,5.8801 6.464,5.5351 C6.073,5.1441 6.073,4.5121 6.463,4.1211 Z" id="Fill-4" fill="#000000"></path>
    </g>
</svg>

<svg viewBox="0 0 12 12" xmlns="http://www.w3.org/2000/svg">
  <path d="M8.171 0A3.834 3.834 0 0 1 12 3.829c0 .549-.116 1.082-.344 1.584a1 1 0 0 1-1.821-.826A1.831 1.831 0 0 0 8.171 2c-.488 0-.947.19-1.293.536L5.535 3.878A1.82 1.82 0 0 0 5 5.171c0 .489.19.949.535 1.294A1 1 0 1 1 4.122 7.88 3.804 3.804 0 0 1 3 5.171c0-1.022.398-1.983 1.121-2.707l1.343-1.342A3.8 3.8 0 0 1 8.171 0zM6.463 4.121a.999.999 0 0 1 1.414 0A3.805 3.805 0 0 1 9 6.828a3.808 3.808 0 0 1-1.122 2.707l-1.343 1.342A3.803 3.803 0 0 1 3.828 12 3.833 3.833 0 0 1 .343 6.587a1 1 0 1 1 1.821.826 1.83 1.83 0 0 0 2.957 2.051l1.343-1.342A1.82 1.82 0 0 0 7 6.83a1.82 1.82 0 0 0-.536-1.294 1 1 0 0 1-.001-1.414z" fill="#000" fill-rule="evenodd"/>
</svg>
